packages/dnb-eufemia/assets/icons/reset_medium.svg

<svg width="24" height="24" viewBox="0 0 24 24" fill="none" xmlns="http://www.w3.org/2000/svg">
<path d="M13.6276 21.6149C13.2191 21.6835 12.9436 22.0702 13.0122 22.4787C13.0808 22.8872 13.4675 23.1628 13.876 23.0942L13.6276 21.6149ZM8 21.7112L8.63345 21.3097L8.506 21.1086L8.2859 21.0179L8 21.7112ZM9.25 16C9.25 15.5858 8.91421 15.25 8.5 15.25C8.08579 15.25 7.75 15.5858 7.75 16H9.25ZM8.5 22.5V23.25C8.91421 23.25 9.25 22.9142 9.25 22.5H8.5ZM2 21.75C1.58579 21.75 1.25 22.0858 1.25 22.5C1.25 22.9142 1.58579 23.25 2 23.25V21.75ZM2.25 12C2.25 6.61522 6.61522 2.25 12 2.25V0.75C5.7868 0.75 0.75 5.7868 0.75 12H2.25ZM12 2.25C17.3848 2.25 21.75 6.61522 21.75 12H23.25C23.25 5.7868 18.2132 0.75 12 0.75V2.25ZM21.75 12C21.75 16.8298 18.2375 20.8407 13.6276 21.6149L13.876 23.0942C19.1964 22.2006 23.25 17.5744 23.25 12H21.75ZM8.2859 21.0179C4.74208 19.5566 2.25 16.0684 2.25 12H0.75C0.75 16.6969 3.62815 20.7198 7.7141 22.4046L8.2859 21.0179ZM7.75 16V22.5H9.25V16H7.75ZM8.5 21.75H2V23.25H8.5V21.75ZM7.36655 22.1128L7.86655 22.9015L9.13345 22.0985L8.63345 21.3097L7.36655 22.1128Z" fill="black"/>
</svg>

<svg width="24" height="24" viewBox="0 0 24 24" fill="none" xmlns="http://www.w3.org/2000/svg"><path d="M13.628 21.615a.75.75 0 1 0 .248 1.48l-.248-1.48ZM8 21.71l.633-.401-.127-.201-.22-.091L8 21.71ZM9.25 16a.75.75 0 0 0-1.5 0h1.5Zm-.75 6.5v.75a.75.75 0 0 0 .75-.75H8.5ZM2 21.75a.75.75 0 0 0 0 1.5v-1.5ZM2.25 12A9.75 9.75 0 0 1 12 2.25V.75C5.787.75.75 5.787.75 12h1.5ZM12 2.25A9.75 9.75 0 0 1 21.75 12h1.5C23.25 5.787 18.213.75 12 .75v1.5ZM21.75 12c0 4.83-3.512 8.84-8.122 9.615l.248 1.48c5.32-.894 9.374-5.52 9.374-11.095h-1.5ZM8.286 21.018A9.753 9.753 0 0 1 2.25 12H.75c0 4.697 2.878 8.72 6.964 10.405l.572-1.387ZM7.75 16v6.5h1.5V16h-1.5Zm.75 5.75H2v1.5h6.5v-1.5Zm-1.133.363.5.788 1.266-.802-.5-.79-1.266.804Z" fill="#000"/></svg>
